setcps(120/60/4)

do
   d1
      $ every 4 (slow 1.5)
      $ sometimesBy 0.2 (jux (0.125 ~>))
      $ sometimesBy 0.1 (jux (1.25 <~))
      $ sound "glitch(<10 6 11 14>, 16)"
      # n (irand 10)
      # speed 3
      |*|gain 1.2
   d2 
      $ sound "bd(<8 5 12>, 16)"
      # gain 1.2
   d9 -- visual controller
      $ sound "yeah yeah yeah yeah" # gain 0.0
      # note (irand 6)
      # resonance 0.5
      # speed 0.5
      # distort 0.5
